X:1
T:Lady Hope of Pinkie
T:Lady Hope of Pinkie
T:Nathaniel Gow (1763-1831)
C:Nathaniel Gow (1763-1831)
L:1/8
Q:1/4=120
M:4/4
K:Bb
V:1 treble 
V:1
"^Slowly" d | B<B b2 af g2 | f>de>c dB AF | B<B b2 af f>g | f>de>c TB2 B,d | B<B b2 af g2 | %6
 f>de>c dB AF | B<B b2 af f>g | f>de>c TB2 B, || F | (D/E/F) BD EG B2 | (A/B/c) (.c.c) de f2 | %12
 (D/E/F) BD EG c>B | (A/B/c) F>A TB2 B>F | (D/E/F) B>D EG BB | (A/B/c) (e/d/c) d>e f2 | %16
 (3DBf (3fDf (3gEg | (3Fca .a.F .a b2 B || %18

